usr/share/icons/biglinux-icons-material/scalable/mimetypes/text-x-typescript.svg

<svg width="24" height="24" viewBox="0 0 24 24" fill="none" xmlns="http://www.w3.org/2000/svg">
<rect x="1" y="1" width="22" height="22" rx="6.6" fill="url(#paint0_radial_21_2260)"/>
<path d="M17.3851 6.10693C17.9643 6.27184 18.406 6.56457 18.8115 7.04284C19.0215 7.29845 19.3329 7.76435 19.3583 7.87566C19.3656 7.90865 18.3735 8.66727 17.7725 9.09192C17.7507 9.1084 17.6638 9.00122 17.5661 8.83631C17.2728 8.3498 16.9651 8.13954 16.4944 8.10243C15.8029 8.04884 15.3576 8.46112 15.3612 9.14965C15.3612 9.35167 15.3865 9.47125 15.4589 9.63616C15.611 9.99485 15.8934 10.2092 16.7804 10.6463C18.4133 11.4461 19.1121 11.9738 19.5465 12.7242C20.0316 13.5612 20.1402 14.897 19.8108 15.8905C19.4487 16.9707 18.5508 17.7046 17.2873 17.9479C16.8963 18.0262 15.9694 18.0138 15.5494 17.9272C14.6334 17.7416 13.7645 17.2263 13.2287 16.5501C13.0187 16.2863 12.6096 15.5977 12.635 15.5483C12.6458 15.5318 12.74 15.4658 12.845 15.3957C12.9463 15.3298 13.3301 15.0783 13.6922 14.8392L14.3475 14.4062L14.4851 14.6371C14.677 14.9711 15.0969 15.4287 15.3504 15.5813C16.0781 16.0183 17.0773 15.9565 17.5697 15.4535C17.7797 15.2349 17.8666 15.0082 17.8666 14.6742C17.8666 14.3733 17.834 14.2413 17.6965 14.0145C17.5191 13.7259 17.157 13.4827 16.1288 12.9756C14.9521 12.3983 14.4452 12.0397 13.9818 11.4707C13.7139 11.1409 13.4605 10.6131 13.3554 10.172C13.2686 9.80505 13.2468 8.88562 13.3156 8.51456C13.5582 7.21997 14.4163 6.31705 15.6544 6.04918C16.0563 5.96261 16.9904 5.99562 17.3851 6.10693ZM12.0303 7.19127L12.0377 8.25499H9.06883V17.8614H6.96883V8.25499H4V7.2119C4 6.63469 4.0108 6.15231 4.02533 6.13994C4.03613 6.12346 5.84283 6.1152 8.03324 6.11928L12.0193 6.13158L12.0303 7.19127Z" fill="#1A7FD4"/>
<defs>
<radialGradient id="paint0_radial_21_2260" cx="0" cy="0" r="1" gradientUnits="userSpaceOnUse" gradientTransform="translate(17.5 1) rotate(116.565) scale(24.5967)">
<stop stop-color="#F4F4F4"/>
<stop offset="1" stop-color="#BBBBBB"/>
</radialGradient>
</defs>
</svg>

<svg xmlns="http://www.w3.org/2000/svg" width="24" height="24" fill="none"><rect width="22" height="22" x="1" y="1" fill="url(#a)" rx="6.6"/><path fill="#1A7FD4" d="M17.385 6.107c.58.165 1.021.458 1.426.936.21.255.522.721.547.833.008.033-.985.791-1.585 1.216-.022.016-.11-.09-.207-.256-.293-.486-.6-.696-1.072-.734-.691-.053-1.136.36-1.133 1.048 0 .202.025.321.098.486.152.359.434.573 1.321 1.01 1.633.8 2.332 1.328 2.767 2.078.485.837.593 2.173.264 3.166-.362 1.08-1.26 1.815-2.524 2.058-.39.078-1.318.066-1.738-.02-.916-.186-1.784-.702-2.32-1.378-.21-.264-.62-.952-.594-1.002.01-.016.105-.082.21-.152l.847-.557.655-.433.138.231c.192.334.612.792.865.944.728.437 1.727.376 2.22-.127.21-.22.297-.446.297-.78 0-.3-.033-.433-.17-.66-.178-.288-.54-.531-1.568-1.038-1.177-.578-1.684-.936-2.147-1.505a3.59 3.59 0 0 1-.627-1.299c-.086-.367-.108-1.286-.04-1.657.243-1.295 1.101-2.198 2.34-2.466.401-.086 1.335-.053 1.73.058ZM12.03 7.19l.008 1.064h-2.97v9.606h-2.1V8.255H4V7.212c0-.577.01-1.06.025-1.072.011-.017 1.818-.025 4.008-.02l3.986.012.011 1.06Z"/><defs><radialGradient id="a" cx="0" cy="0" r="1" gradientTransform="rotate(116.565 8.441 5.908) scale(24.5967)" gradientUnits="userSpaceOnUse"><stop stop-color="#F4F4F4"/><stop offset="1" stop-color="#BBB"/></radialGradient></defs></svg>
